web-ui/src/assets/icons/Qrcode.svg

<svg t="1756571426515" class="icon" viewBox="0 0 1041 1024" version="1.1" xmlns="http://www.w3.org/2000/svg" p-id="3455" width="200" height="200"><path d="M948.906667 931.84h92.16V1024h-92.16zM948.906667 559.786667v184.32H853.333333v-184.32H576.853333V1024h92.16V651.946667h92.16v184.32h279.893334v-276.48z" p-id="3456"></path><path d="M761.173333 931.84H853.333333V1024h-92.16zM187.733333 187.733333h92.16v92.16H187.733333z" p-id="3457"></path><path d="M0 464.213333h464.213333V0H0v464.213333zM92.16 92.16h279.893333v279.893333H92.16V92.16zM187.733333 744.106667h92.16v92.16H187.733333z" p-id="3458"></path><path d="M0 1024h464.213333V559.786667H0V1024z m92.16-372.053333h279.893333v279.893333H92.16v-279.893333zM761.173333 187.733333H853.333333v92.16h-92.16z" p-id="3459"></path><path d="M1041.066667 0H576.853333v464.213333h464.213334V0z m-92.16 372.053333h-279.893334V92.16h279.893334v279.893333z" p-id="3460"></path></svg>

<svg xmlns="http://www.w3.org/2000/svg" width="200" height="200" class="icon" viewBox="0 0 1041 1024"><path d="M949 931.8h92v92.2h-92zm0-372V744h-95.7V559.8H577V1024H669V652h92.2v184.3H1041V559.8z"/><path d="M761.2 931.8h92.1v92.2h-92.1zm-573.5-744H280v92h-92.2z"/><path d="M0 464.2h464.2V0H0zm92.2-372H372V372H92zm95.5 652H280v92h-92.2z"/><path d="M0 1024h464.2V559.8H0zm92.2-372H372v279.8H92zm669-464.3h92.1V280h-92.1z"/><path d="M1041 0H577v464.2H1041zm-92 372H669V92.3h280z"/></svg>
